;FLAVOR:Marlin
;TIME:1864
;Filament used: 1.93485m
;Layer height: 0.2
;MINX:75.182
;MINY:94
;MINZ:0.2
;MAXX:146.214
;MAXY:167.601
;MAXZ:11
;TARGET_MACHINE.NAME:Creality Ender-3 V3 SE
;Generated with Cura_SteamEngine 5.12.0
M220 S100 ;Reset Feedrate
M221 S100 ;Reset Flowrate

G28 ;Home

M420 S1; Use saved mesh leveling data

G92 E0 ;Reset Extruder
G1 Z2.0 F3000 ;Move Z Axis up
G1 X-3 Y20 Z0.28 F5000.0 ;Move to start position
M190 S60 ; Set bed temperature and wait
M109 S200 ; Set hotend temperature and wait
G1 X-3 Y100.0 Z0.28 F1500.0 E15 ;Draw the first line
G1 X-2 Y100.0 Z0.28 F5000.0 ;Move to side a little
G1 X-2 Y20 Z0.28 F1500.0 E30 ;Draw the second line
G92 E0 ;Reset Extruder
G1 E-1.0000 F1800 ;Retract a bit
G1 Z2.0 F3000 ;Move Z Axis up
G1 E0.0000 F1800 

M82 ;absolute extrusion mode
G92 E0
G92 E0
G1 F2400 E-0.8
;LAYER_COUNT:55
;LAYER:0
M107
G0 F9000 X79.361 Y96.387 Z0.2
;TYPE:SKIRT
G1 F2400 E0
G1 F1800 X80.18 Y95.797 E0.03357
G1 X81.019 Y95.301 E0.06599
G1 X81.833 Y94.91 E0.09602
G1 X82.81 Y94.542 E0.13075
G1 X83.714 Y94.292 E0.16194
G1 X84.716 Y94.109 E0.19582
G1 X85.887 Y94.013 E0.2349
G1 X86.494 Y94 E0.25509
G1 X131.986 Y94 E1.76816
G1 X132.865 Y94.013 E1.7974
G1 X133.836 Y94.072 E1.82976
G1 X134.799 Y94.218 E1.86215
G1 X135.747 Y94.449 E1.89461
G1 X136.669 Y94.763 E1.927
G1 X137.558 Y95.156 E1.95933
G1 X138.381 Y95.609 E1.99058
G1 X139.218 Y96.172 E2.02413
G1 X139.975 Y96.786 E2.05655
G1 X140.673 Y97.464 E2.08891
G1 X141.309 Y98.201 E2.12129
G1 X141.879 Y98.992 E2.15372
G1 X142.341 Y99.767 E2.18373
G1 X142.795 Y100.71 E2.21854
G1 X143.124 Y101.588 E2.24972
G1 X143.393 Y102.56 E2.28326
G1 X143.568 Y103.517 E2.31562
G1 X143.658 Y104.486 E2.34799
G1 X143.664 Y105.39 E2.37806
G1 X143.562 Y106.554 E2.41692
G1 X143.451 Y107.334 E2.44313
G1 X143.132 Y109.847 E2.52738
G1 X142.879 Y112.407 E2.61294
G1 X142.708 Y114.866 E2.69492
G1 X142.602 Y117.411 E2.77964
G1 X142.568 Y119.92 E2.8631
G1 X142.606 Y122.409 E2.9459
G1 X142.714 Y124.95 E3.03049
G1 X142.893 Y127.455 E3.11402
G1 X143.142 Y129.93 E3.19675
G1 X143.472 Y132.495 E3.28277
G1 X143.853 Y134.915 E3.36425
G1 X144.322 Y137.426 E3.44921
G1 X144.849 Y139.875 E3.53253
G1 X145.453 Y142.323 E3.61639
G1 X145.859 Y143.872 E3.66965
G1 X146.059 Y144.825 E3.70204
G1 X146.168 Y145.722 E3.73209
G1 X146.199 Y146.274 E3.75048
G1 X146.214 Y146.931 E3.77234
G1 X146.213 Y155.302 E4.05076
G1 X146.201 Y156.029 E4.07494
G1 X146.156 Y156.856 E4.10249
G1 X146.024 Y157.82 E4.13485
G1 X145.808 Y158.769 E4.16722
G1 X145.509 Y159.695 E4.19958
G1 X145.158 Y160.528 E4.22965
G1 X144.669 Y161.452 E4.26442
G1 X144.178 Y162.209 E4.29443
G1 X143.265 Y163.331 E4.34254
G1 X142.913 Y163.704 E4.3596
G1 X142.12 Y164.479 E4.39648
G1 X141.494 Y165.048 E4.42462
G1 X140.777 Y165.597 E4.45465
G1 X139.905 Y166.148 E4.48896
G1 X139.374 Y166.432 E4.50899
G1 X138.456 Y166.839 E4.54239
G1 X137.568 Y167.142 E4.57359
G1 X136.587 Y167.382 E4.60718
G1 X135.617 Y167.528 E4.63981
G1 X134.897 Y167.567 E4.66379
G1 X134.817 Y167.585 E4.66652
G1 X133.902 Y167.601 E4.69696
G1 X95.264 Y167.6 E5.98206
G1 X94.528 Y167.588 E6.00654
G1 X93.555 Y167.529 E6.03897
G1 X92.619 Y167.388 E6.07045
G1 X91.203 Y167.013 E6.11917
G1 X90.273 Y166.652 E6.15235
G1 X89.751 Y166.406 E6.17154
G1 X88.309 Y165.671 E6.22537
G1 X85.757 Y164.426 E6.31982
G1 X84.867 Y163.922 E6.35383
G1 X84.123 Y163.41 E6.38387
G1 X83.319 Y162.745 E6.41858
G1 X82.676 Y162.11 E6.44863
G1 X82.001 Y161.311 E6.48342
G1 X81.442 Y160.514 E6.5158
G1 X80.989 Y159.733 E6.54583
G1 X80.549 Y158.793 E6.58035
G1 X80.285 Y158.083 E6.60555
G1 X80.143 Y157.625 E6.62149
G1 X79.879 Y156.627 E6.65583
G1 X78.166 Y149.758 E6.89129
G1 X78.014 Y149.113 E6.91333
G1 X77.912 Y148.619 E6.93011
G1 X77.773 Y147.603 E6.96421
G1 X77.725 Y146.631 E6.99658
G1 X77.76 Y145.732 E7.02651
G1 X77.957 Y142.846 E7.12272
G1 X78.056 Y140.255 E7.20896
G1 X78.081 Y137.772 E7.29155
G1 X78.035 Y135.26 E7.37511
G1 X77.918 Y132.754 E7.45855
G1 X77.729 Y130.219 E7.5431
G1 X77.469 Y127.703 E7.62723
G1 X77.143 Y125.242 E7.7098
G1 X76.74 Y122.737 E7.79418
G1 X76.275 Y120.292 E7.87696
G1 X75.41 Y116.425 E8.00876
G1 X75.254 Y115.409 E8.04295
G1 X75.198 Y114.603 E8.06982
G1 X75.182 Y113.688 E8.10026
G1 X75.183 Y105.509 E8.37229
G1 X75.195 Y104.808 E8.39561
G1 X75.255 Y103.835 E8.42803
G1 X75.402 Y102.874 E8.46037
G1 X75.633 Y101.926 E8.49282
G1 X75.935 Y101.037 E8.52405
G1 X76.342 Y100.115 E8.55757
G1 X76.813 Y99.263 E8.58995
G1 X77.358 Y98.454 E8.62239
G1 X77.949 Y97.726 E8.65358
G1 X78.651 Y97.001 E8.68715
G1 X79.361 Y96.387 E8.71837
G0 F9000 X79.623 Y96.69
G1 F1800 X80.384 Y96.141 E8.74958
G1 X81.192 Y95.662 E8.78082
G1 X82.006 Y95.271 E8.81085
G1 X82.917 Y94.928 E8.84323
G1 X83.821 Y94.678 E8.87443
G1 X84.749 Y94.508 E8.9058
G1 X85.896 Y94.413 E8.94408
G1 X86.503 Y94.4 E8.96428
G1 X131.98 Y94.4 E10.47685
G1 X132.841 Y94.412 E10.50549
G1 X133.777 Y94.468 E10.53668
G1 X134.705 Y94.607 E10.56789
G1 X135.619 Y94.828 E10.59916
G1 X136.508 Y95.129 E10.63038
G1 X137.366 Y95.507 E10.66156
G1 X138.158 Y95.941 E10.6916
G1 X138.967 Y96.483 E10.72399
G1 X139.697 Y97.073 E10.75521
G1 X140.371 Y97.726 E10.78642
G1 X140.985 Y98.435 E10.81761
G1 X141.535 Y99.197 E10.84887
G1 X141.997 Y99.972 E10.87888
G1 X142.42 Y100.85 E10.9113
G1 X142.749 Y101.728 E10.94248
G1 X143 Y102.633 E10.97372
G1 X143.17 Y103.555 E11.0049
G1 X143.258 Y104.489 E11.0361
G1 X143.264 Y105.393 E11.06617
G1 X143.166 Y106.498 E11.10307
G1 X143.055 Y107.278 E11.12927
G1 X142.735 Y109.797 E11.21373
G1 X142.481 Y112.368 E11.29965
G1 X142.308 Y114.849 E11.38237
G1 X142.202 Y117.394 E11.46709
G1 X142.168 Y119.915 E11.55095
G1 X142.206 Y122.426 E11.63448
G1 X142.315 Y124.979 E11.71947
G1 X142.495 Y127.495 E11.80336
G1 X142.745 Y129.981 E11.88646
G1 X143.075 Y132.546 E11.97248
G1 X143.46 Y134.988 E12.0547
G1 X143.931 Y137.51 E12.14004
G1 X144.461 Y139.971 E12.22377
G1 X145.066 Y142.425 E12.30783
G1 X145.468 Y143.955 E12.36045
G1 X145.662 Y144.873 E12.39165
G1 X145.771 Y145.77 E12.42171
G1 X145.799 Y146.283 E12.4388
G1 X145.814 Y146.931 E12.46035
G1 X145.813 Y155.296 E12.73857
G1 X145.802 Y156.008 E12.76226
G1 X145.76 Y156.802 E12.7887
G1 X145.634 Y157.732 E12.81992
G1 X145.427 Y158.647 E12.85112
G1 X145.14 Y159.54 E12.88232
G1 X144.789 Y160.373 E12.91238
G1 X144.333 Y161.234 E12.94479
G1 X143.842 Y161.991 E12.9748
G1 X142.955 Y163.078 E13.02146
G1 X142.633 Y163.418 E13.03704
G1 X141.851 Y164.183 E13.07342
G1 X141.251 Y164.73 E13.10043
G1 X140.534 Y165.279 E13.13046
G1 X139.716 Y165.795 E13.16263
G1 X139.185 Y166.079 E13.18266
G1 X138.327 Y166.46 E13.21388
G1 X137.439 Y166.763 E13.24509
G1 X136.527 Y166.987 E13.27632
G1 X135.595 Y167.129 E13.30768
G1 X134.853 Y167.169 E13.3324
G1 X134.81 Y167.185 E13.33392
G1 X133.902 Y167.201 E13.36413
G1 X95.27 Y167.2 E14.64903
G1 X94.552 Y167.189 E14.67292
G1 X93.615 Y167.133 E14.70414
G1 X92.679 Y166.992 E14.73562
G1 X91.347 Y166.64 E14.78144
G1 X90.443 Y166.29 E14.81368
G1 X89.933 Y166.05 E14.83243
G1 X88.484 Y165.311 E14.88653
G1 X85.932 Y164.066 E14.98097
G1 X85.094 Y163.592 E15.01299
G1 X84.35 Y163.08 E15.04303
G1 X83.6 Y162.46 E15.0754
G1 X82.957 Y161.825 E15.10546
G1 X82.328 Y161.081 E15.13786
G1 X81.788 Y160.313 E15.16909
G1 X81.335 Y159.532 E15.19911
G1 X80.924 Y158.653 E15.23139
G1 X80.667 Y157.964 E15.25585
G1 X80.53 Y157.523 E15.27121
G1 X80.267 Y156.53 E15.30537
G1 X78.555 Y149.666 E15.54066
G1 X78.406 Y149.032 E15.56233
G1 X78.304 Y148.538 E15.5791
G1 X78.172 Y147.583 E15.61117
G1 X78.125 Y146.646 E15.64237
G1 X78.159 Y145.759 E15.6719
G1 X78.357 Y142.861 E15.76851
G1 X78.456 Y140.27 E15.85475
G1 X78.481 Y137.776 E15.9377
G1 X78.435 Y135.241 E16.02203
G1 X78.318 Y132.735 E16.10547
G1 X78.128 Y130.189 E16.19039
G1 X77.867 Y127.662 E16.27488
G1 X77.54 Y125.19 E16.35782
G1 X77.135 Y122.673 E16.44261
G1 X76.666 Y120.205 E16.52617
G1 X76.024 Y117.308 E16.62486
G1 X75.8 Y116.335 E16.65807
G1 X75.653 Y115.381 E16.69017
G1 X75.598 Y114.596 E16.71634
G1 X75.582 Y113.688 E16.74655
G1 X75.583 Y105.515 E17.01838
G1 X75.594 Y104.832 E17.0411
G1 X75.651 Y103.895 E17.07233
G1 X75.791 Y102.968 E17.10351
G1 X76.012 Y102.055 E17.13475
G1 X76.314 Y101.166 E17.16598
G1 X76.692 Y100.308 E17.19716
G1 X77.145 Y99.486 E17.22838
G1 X77.669 Y98.706 E17.25963
G1 X78.26 Y97.978 E17.29082
G1 X78.913 Y97.304 E17.32203
G1 X79.623 Y96.69 E17.35325
G0 F9000 X79.857 Y97.014
G1 F1800 X80.589 Y96.485 E17.38329
G1 X81.365 Y96.023 E17.41333
G1 X82.179 Y95.632 E17.44337
G1 X83.024 Y95.313 E17.47341
G1 X83.894 Y95.071 E17.50344
G1 X84.782 Y94.907 E17.53348
G1 X85.905 Y94.813 E17.57096
G1 X86.512 Y94.8 E17.59115
G1 X131.975 Y94.8 E19.10326
G1 X132.818 Y94.811 E19.1313
G1 X133.719 Y94.864 E19.16132
G1 X134.612 Y94.996 E19.19134
G1 X135.491 Y95.207 E19.22141
G1 X136.347 Y95.495 E19.25145
G1 X137.174 Y95.858 E19.28148
G1 X137.966 Y96.292 E19.31152
G1 X138.716 Y96.794 E19.34154
G1 X139.419 Y97.361 E19.37158
G1 X140.069 Y97.988 E19.40162
G1 X140.661 Y98.67 E19.43165
G1 X141.191 Y99.402 E19.46171
G1 X141.653 Y100.177 E19.49172
G1 X142.046 Y100.991 E19.52179
G1 X142.364 Y101.836 E19.55181
G1 X142.607 Y102.706 E19.58186
G1 X142.772 Y103.593 E19.61187
G1 X142.858 Y104.492 E19.6419
G1 X142.864 Y105.396 E19.67197
G1 X142.77 Y106.442 E19.7069
G1 X142.659 Y107.222 E19.73311
G1 X142.338 Y109.747 E19.81776
G1 X142.083 Y112.329 E19.90406
G1 X141.908 Y114.832 E19.98751
G1 X141.802 Y117.377 E20.07223
G1 X141.768 Y119.91 E20.15649
G1 X141.806 Y122.443 E20.24075
G1 X141.916 Y125.008 E20.32614
G1 X142.097 Y127.535 E20.4104
G1 X142.348 Y130.032 E20.49387
G1 X142.678 Y132.597 E20.57988
G1 X143.067 Y135.061 E20.66285
G1 X143.54 Y137.594 E20.74856
G1 X144.073 Y140.067 E20.8327
G1 X144.679 Y142.527 E20.91696
G1 X145.077 Y144.038 E20.96893
G1 X145.265 Y144.921 E20.99896
G1 X145.374 Y145.818 E21.02902
G1 X145.399 Y146.292 E21.0448
G1 X145.414 Y146.931 E21.06606
G1 X145.413 Y155.29 E21.34408
G1 X145.403 Y155.988 E21.3673
G1 X145.364 Y156.749 E21.39265
G1 X145.244 Y157.644 E21.42268
G1 X145.046 Y158.525 E21.45271
G1 X144.771 Y159.385 E21.48274
G1 X144.42 Y160.218 E21.51281
G1 X143.997 Y161.016 E21.54285
G1 X143.506 Y161.773 E21.57286
G1 X142.664 Y162.803 E21.61711
G1 X142.353 Y163.132 E21.63216
G1 X141.581 Y163.888 E21.6681
G1 X141.008 Y164.412 E21.69393
G1 X140.291 Y164.961 E21.72396
G1 X139.527 Y165.443 E21.75401
G1 X139.022 Y165.714 E21.77307
G1 X138.197 Y166.082 E21.80312
G1 X137.343 Y166.375 E21.83315
G1 X136.466 Y166.592 E21.86319
G1 X135.573 Y166.73 E21.89325
G1 X134.803 Y166.772 E21.9189
G1 X134.803 Y166.785 E21.91933
G1 X133.902 Y166.801 E21.9493
G1 X95.276 Y166.8 E23.23401
G1 X94.575 Y166.79 E23.25732
G1 X93.673 Y166.737 E23.28738
G1 X92.78 Y166.605 E23.3174
G1 X91.491 Y166.267 E23.36172
G1 X90.613 Y165.928 E23.39303
G1 X90.115 Y165.694 E23.41133
G1 X88.659 Y164.951 E23.46569
G1 X86.107 Y163.706 E23.56014
G1 X85.321 Y163.262 E23.59016
G1 X84.577 Y162.75 E23.6202
G1 X83.881 Y162.175 E23.65023
G1 X83.238 Y161.54 E23.68028
G1 X82.655 Y160.851 E23.7103
G1 X82.134 Y160.112 E23.74038
G1 X81.681 Y159.331 E23.77041
G1 X81.299 Y158.513 E23.80043
G1 X81.042 Y157.824 E23.82489
G1 X80.917 Y157.42 E23.83896
G1 X80.655 Y156.433 E23.87292
G1 X78.944 Y149.575 E24.10801
G1 X78.798 Y148.951 E24.12933
G1 X78.696 Y148.457 E24.1461
G1 X78.571 Y147.563 E24.17613
G1 X78.525 Y146.661 E24.20617
G1 X78.558 Y145.786 E24.23529
G1 X78.757 Y142.876 E24.3323
G1 X78.856 Y140.285 E24.41854
G1 X78.881 Y137.78 E24.50187
G1 X78.835 Y135.222 E24.58696
G1 X78.718 Y132.716 E24.6704
G1 X78.527 Y130.159 E24.75568
G1 X78.265 Y127.621 E24.84055
G1 X77.937 Y125.138 E24.92385
G1 X77.53 Y122.609 E25.00904
G1 X77.057 Y120.118 E25.09338
G1 X76.415 Y117.221 E25.19207
G1 X76.19 Y116.245 E25.22538
G1 X76.052 Y115.353 E25.2554
G1 X75.998 Y114.589 E25.28088
G1 X75.982 Y113.688 E25.31085
G1 X75.983 Y105.521 E25.58248
G1 X75.993 Y104.856 E25.6046
G1 X76.047 Y103.954 E25.63466
G1 X76.18 Y103.061 E25.66469
G1 X76.391 Y102.183 E25.69472
G1 X76.68 Y101.327 E25.72477
G1 X77.043 Y100.5 E25.75481
G1 X77.477 Y99.709 E25.78482
G1 X77.98 Y98.958 E25.81488
G1 X78.548 Y98.256 E25.84492
G1 X79.175 Y97.606 E25.87495
G1 X79.857 Y97.014 E25.90499
G1 F2400 E25.10499
;MESH:Moonlander_Notch_Blank.stl
G0 F9000 X86.606 Y104.335
G0 X110 Y114.4
;TYPE:WALL-INNER
G1 F2400 E25.90499
G1 F1800 X126.256 Y114.4 E26.44567
G1 X126.86 Y112.696 E26.5058
G1 X127.055 Y112.514 E26.51467
G1 X127.301 Y112.416 E26.52348
G1 X130.211 Y112.416 E26.62027
G1 X131.911 Y105.6 E26.85391
G1 X86.78 Y105.6 E28.35497
G1 X86.78 Y113.999 E28.63433
G1 X87.181 Y114.4 E28.65319
G1 X110 Y114.4 E29.41215
G0 F9000 X110 Y114.8
;TYPE:WALL-OUTER
G1 F1800 X126.538 Y114.8 E29.96221
G1 X127.209 Y112.909 E30.02894
G1 X127.344 Y112.819 E30.03434
G1 X130.523 Y112.816 E30.14007
G1 X132.423 Y105.2 E30.40115
G1 X86.38 Y105.2 E31.93254
G1 X86.38 Y114.165 E32.23072
G1 X87.015 Y114.8 E32.26059
G1 X110 Y114.8 E33.02507
G0 F9000 X110 Y114.04
;TYPE:SKIN
G1 F1800 X87.331 Y114.04 E33.77905
G1 X87.14 Y113.849 E33.78803
G1 X87.14 Y105.96 E34.05042
G1 X131.447 Y105.961 E35.52408
G1 X129.927 Y112.055 E35.73297
G1 X127.237 Y112.058 E35.82244
G1 X126.856 Y112.211 E35.8361
G1 X126.612 Y112.435 E35.84712
G1 X126.49 Y112.663 E35.85572
G1 X125.998 Y114.04 E35.90435
G1 X110 Y114.04 E36.43645
G1 F2400 E35.63645
G0 F9000 X110 Y114.3
G0 X87.818 Y114.3
G0 X87.818 Y113.84
G1 F2400 E36.43645
G1 F1800 X87.34 Y113.361 E36.45896
G0 F9000 X87.34 Y112.796
G1 F1800 X88.384 Y113.84 E36.50806
G0 F9000 X88.95 Y113.84
G1 F1800 X87.34 Y112.23 E36.58379
G0 F9000 X87.34 Y111.664
G1 F1800 X89.515 Y113.84 E36.68612
G0 F9000 X90.081 Y113.84
G1 F1800 X87.34 Y111.098 E36.81507
G0 F9000 X87.34 Y110.533
G1 F1800 X90.647 Y113.84 E36.97062
G0 F9000 X91.213 Y113.84
G1 F1800 X87.34 Y109.967 E37.1528
G0 F9000 X87.34 Y109.401
G1 F1800 X91.778 Y113.84 E37.36157
G0 F9000 X92.344 Y113.84
G1 F1800 X87.34 Y108.836 E37.59694
G0 F9000 X87.34 Y108.27
G1 F1800 X92.91 Y113.84 E37.85894
G0 F9000 X93.475 Y113.84
G1 F1800 X87.34 Y107.704 E38.14753
G0 F9000 X87.34 Y107.139
G1 F1800 X94.041 Y113.84 E38.46273
G0 F9000 X94.607 Y113.84
G1 F1800 X87.34 Y106.573 E38.80455
G0 F9000 X87.493 Y106.161
G1 F1800 X95.172 Y113.84 E39.16574
G0 F9000 X95.738 Y113.84
G1 F1800 X88.059 Y106.161 E39.52694
G0 F9000 X88.625 Y106.161
G1 F1800 X96.304 Y113.84 E39.88814
G0 F9000 X96.869 Y113.84
G1 F1800 X89.19 Y106.161 E40.24933
G0 F9000 X89.756 Y106.161
G1 F1800 X97.435 Y113.84 E40.61053
G0 F9000 X98.001 Y113.84
G1 F1800 X90.322 Y106.161 E40.97173
G0 F9000 X90.887 Y106.161
G1 F1800 X98.566 Y113.84 E41.33292
G0 F9000 X99.132 Y113.84
G1 F1800 X91.453 Y106.161 E41.69412
G0 F9000 X92.019 Y106.161
G1 F1800 X99.698 Y113.84 E42.05532
G0 F9000 X100.263 Y113.84
G1 F1800 X92.584 Y106.161 E42.41651
G0 F9000 X93.15 Y106.161
G1 F1800 X100.829 Y113.84 E42.77771
G0 F9000 X101.395 Y113.84
G1 F1800 X93.716 Y106.161 E43.13891
G0 F9000 X94.281 Y106.161
G1 F1800 X101.961 Y113.84 E43.50013
G0 F9000 X102.526 Y113.84
G1 F1800 X94.847 Y106.161 E43.86132
G0 F9000 X95.413 Y106.161
G1 F1800 X103.092 Y113.84 E44.22252
G0 F9000 X103.658 Y113.84
G1 F1800 X95.978 Y106.161 E44.58374
G0 F9000 X96.544 Y106.161
G1 F1800 X104.223 Y113.84 E44.94494
G0 F9000 X104.789 Y113.84
G1 F1800 X97.11 Y106.161 E45.30613
G0 F9000 X97.675 Y106.161
G1 F1800 X105.355 Y113.84 E45.66735
G0 F9000 X105.92 Y113.84
G1 F1800 X98.241 Y106.161 E46.02855
G0 F9000 X98.807 Y106.161
G1 F1800 X106.486 Y113.84 E46.38975
G0 F9000 X107.052 Y113.84
G1 F1800 X99.373 Y106.161 E46.75094
G0 F9000 X99.938 Y106.161
G1 F1800 X107.617 Y113.84 E47.11214
G0 F9000 X108.183 Y113.84
G1 F1800 X100.504 Y106.161 E47.47334
G0 F9000 X101.07 Y106.161
G1 F1800 X108.749 Y113.84 E47.83453
G0 F9000 X109.314 Y113.84
G1 F1800 X101.635 Y106.161 E48.19573
G0 F9000 X102.201 Y106.161
G1 F1800 X109.88 Y113.84 E48.55693
G0 F9000 X110.446 Y113.84
G1 F1800 X102.767 Y106.161 E48.91812
G0 F9000 X103.332 Y106.161
G1 F1800 X111.012 Y113.84 E49.27934
G0 F9000 X111.577 Y113.84
G1 F1800 X103.898 Y106.161 E49.64054
G0 F9000 X104.464 Y106.161
G1 F1800 X112.143 Y113.84 E50.00174
G0 F9000 X112.709 Y113.84
G1 F1800 X105.029 Y106.161 E50.36296
G0 F9000 X105.595 Y106.161
